build/images/icon-service.svg

<svg width="44" height="44" viewBox="0 0 44 44" fill="none" xmlns="http://www.w3.org/2000/svg">
<path d="M21.9996 36.1578C29.8187 36.1578 36.1573 29.8191 36.1573 22C36.1573 14.1809 29.8187 7.84222 21.9996 7.84222C14.1804 7.84222 7.8418 14.1809 7.8418 22C7.8418 29.8191 14.1804 36.1578 21.9996 36.1578Z" fill="#EDC96E"/>
<path d="M41.6195 17.288H40.8909C40.4256 15.4142 39.6871 13.6327 38.6885 11.9753L39.2051 11.4588C40.1332 10.5306 40.1332 9.02052 39.2051 8.09231L35.9078 4.79497C34.9796 3.86693 33.4695 3.86693 32.5413 4.79497L32.0248 5.31154C30.3676 4.31312 28.5859 3.57457 26.7121 3.10922V2.38047C26.7121 1.06795 25.6443 0 24.3317 0H19.6685C18.3559 0 17.288 1.06795 17.288 2.38047V3.10913C15.4142 3.57448 13.6326 4.31303 11.9754 5.31145L11.4589 4.79488C10.5307 3.86684 9.0206 3.86684 8.09239 4.79488L4.79497 8.09231C3.86684 9.02052 3.86684 10.5306 4.79497 11.4588L5.31154 11.9753C4.31303 13.6327 3.57448 15.4143 3.10922 17.288H2.38047C1.06795 17.288 0 18.3558 0 19.6684V24.3316C0 25.6442 1.06795 26.712 2.38047 26.712H3.10913C3.5744 28.5858 4.31295 30.3673 5.31145 32.0247L4.79488 32.5412C3.86676 33.4694 3.86676 34.9795 4.79488 35.9077L8.09222 39.205C9.02043 40.1331 10.5305 40.1331 11.4587 39.205L11.9752 38.6885C13.6324 39.6869 15.4141 40.4254 17.2879 40.8908V41.6194C17.2879 42.932 18.3557 43.9999 19.6683 43.9999H24.3315C25.6441 43.9999 26.712 42.932 26.712 41.6194V40.8908C28.5858 40.4254 30.3674 39.6869 32.0246 38.6885L32.5411 39.205C33.4693 40.1331 34.9794 40.1331 35.9076 39.205L39.2049 35.9077C40.1331 34.9795 40.1331 33.4694 39.2049 32.5412L38.6884 32.0247C39.6869 30.3673 40.4254 28.5857 40.8907 26.712H41.6194C42.9319 26.712 43.9998 25.6442 43.9998 24.3316V19.6684C44 18.3558 42.9321 17.288 41.6195 17.288ZM42.2812 24.3316C42.2812 24.6965 41.9844 24.9933 41.6195 24.9933H40.2064C39.8001 24.9933 39.4491 25.278 39.3655 25.6755C38.9141 27.8189 38.0769 29.8387 36.877 31.6789C36.6551 32.0193 36.7018 32.4686 36.9892 32.7559L37.9898 33.7565C38.2478 34.0145 38.2478 34.4343 37.9898 34.6923L34.6925 37.9896C34.4345 38.2476 34.0147 38.2476 33.7567 37.9896L32.7561 36.989C32.4687 36.7017 32.0194 36.6552 31.6791 36.8768C29.839 38.0767 27.8193 38.9139 25.6757 39.3653C25.2781 39.4491 24.9935 39.7999 24.9935 40.2062V41.6195C24.9935 41.9844 24.6966 42.2812 24.3317 42.2812H19.6686C19.3037 42.2812 19.0069 41.9844 19.0069 41.6195V40.2064C19.0069 39.8001 18.7222 39.4492 18.3246 39.3655C16.1811 38.914 14.1613 38.0768 12.3213 36.877C12.1775 36.7833 12.0144 36.7375 11.8522 36.7375C11.6303 36.7375 11.4102 36.8232 11.2442 36.9892L10.2437 37.9898C9.98568 38.2478 9.56588 38.2478 9.30789 37.9898L6.01055 34.6925C5.75257 34.4345 5.75257 34.0147 6.01055 33.7567L7.01113 32.7561C7.2985 32.4687 7.34525 32.0195 7.12336 31.6791C5.92341 29.8389 5.08621 27.8191 4.63487 25.6757C4.55116 25.2781 4.20028 24.9935 3.79397 24.9935H2.38047C2.01558 24.9935 1.71875 24.6966 1.71875 24.3317V19.6686C1.71875 19.3037 2.01558 19.0069 2.38047 19.0069H3.79363C4.20002 19.0069 4.55091 18.7222 4.63452 18.3246C5.08587 16.1813 5.92307 14.1615 7.12302 12.3213C7.34491 11.9809 7.29816 11.5316 7.01078 11.2442L6.01021 10.2437C5.75223 9.98568 5.75223 9.56588 6.01021 9.30789L9.30755 6.01055C9.56553 5.75257 9.98534 5.75257 10.2433 6.01055L11.2439 7.01113C11.5314 7.29859 11.9808 7.34516 12.3209 7.12336C14.161 5.9235 16.1807 5.0863 18.3243 4.63487C18.7219 4.55108 19.0065 4.20028 19.0065 3.79397V2.38047C19.0065 2.01558 19.3034 1.71875 19.6683 1.71875H24.3314C24.6963 1.71875 24.9931 2.01558 24.9931 2.38047V3.79363C24.9931 4.20002 25.2778 4.55082 25.6754 4.63452C27.8189 5.08595 29.8387 5.92316 31.6787 7.12302C32.0191 7.34473 32.4684 7.29816 32.7558 7.01078L33.7563 6.01021C34.0143 5.75223 34.4341 5.75223 34.6921 6.01021L37.9894 9.30755C38.2474 9.56553 38.2474 9.98534 37.9894 10.2433L36.9889 11.2439C36.7015 11.5313 36.6547 11.9805 36.8766 12.3209C38.0766 14.1611 38.9138 16.1809 39.3651 18.3243C39.4488 18.7219 39.7997 19.0065 40.206 19.0065H41.6195C41.9844 19.0065 42.2812 19.3034 42.2812 19.6683V24.3316Z" fill="#020288"/>
<path d="M27.6355 19.3508L24.3085 19.474L24.8243 12.5148C24.853 12.1273 24.6182 11.7687 24.2514 11.6402C23.8847 11.5117 23.4774 11.6453 23.2581 11.966L15.6228 23.126C15.4427 23.3892 15.4232 23.7303 15.5719 24.0122C15.7206 24.2942 16.0132 24.4707 16.332 24.4707H20.5369L19.5946 31.4335C19.5405 31.8334 19.7719 32.2171 20.1509 32.3557C20.2478 32.3912 20.3474 32.4082 20.4461 32.4082C20.7332 32.4082 21.0098 32.2637 21.1712 32.0104L28.3923 20.6712C28.5639 20.4017 28.5719 20.0595 28.4131 19.7823C28.254 19.5052 27.9551 19.3385 27.6355 19.3508ZM21.8223 27.7879L22.372 23.7266C22.4053 23.4809 22.3308 23.2327 22.1675 23.0459C22.0044 22.8591 21.7683 22.752 21.5204 22.752H17.9612L22.8744 15.5707L22.5235 20.3046C22.5054 20.5484 22.592 20.7885 22.7617 20.9646C22.9313 21.1406 23.1677 21.2361 23.4122 21.227L26.0631 21.1289L21.8223 27.7879Z" fill="#020288"/>
</svg>

<svg width="44" height="44" fill="none" xmlns="http://www.w3.org/2000/svg"><path d="M22 36.158c7.819 0 14.157-6.339 14.157-14.158 0-7.82-6.338-14.158-14.157-14.158-7.82 0-14.158 6.339-14.158 14.158 0 7.82 6.338 14.158 14.158 14.158z" fill="#EDC96E"/><path d="M41.62 17.288h-.73a19.265 19.265 0 00-2.202-5.313l.517-.516a2.383 2.383 0 000-3.367l-3.297-3.297a2.383 2.383 0 00-3.367 0l-.516.517a19.27 19.27 0 00-5.313-2.203V2.38A2.383 2.383 0 0024.332 0h-4.663a2.383 2.383 0 00-2.381 2.38v.73a19.268 19.268 0 00-5.313 2.201l-.516-.516a2.383 2.383 0 00-3.367 0L4.795 8.092a2.383 2.383 0 000 3.367l.517.516a19.267 19.267 0 00-2.203 5.313H2.38A2.383 2.383 0 000 19.668v4.664a2.383 2.383 0 002.38 2.38h.73a19.267 19.267 0 002.201 5.313l-.516.516a2.383 2.383 0 000 3.367l3.297 3.297a2.383 2.383 0 003.367 0l.516-.517a19.271 19.271 0 005.313 2.203v.728a2.383 2.383 0 002.38 2.38h4.663a2.383 2.383 0 002.381-2.38v-.728a19.27 19.27 0 005.313-2.203l.516.517a2.383 2.383 0 003.367 0l3.297-3.297a2.383 2.383 0 000-3.367l-.517-.516a19.269 19.269 0 002.203-5.313h.728a2.383 2.383 0 002.38-2.38v-4.664a2.383 2.383 0 00-2.38-2.38zm.661 7.044a.662.662 0 01-.661.661h-1.414a.86.86 0 00-.84.683 17.584 17.584 0 01-2.489 6.003.86.86 0 00.112 1.077l1 1a.662.662 0 010 .936l-3.296 3.298a.662.662 0 01-.936 0l-1-1.001a.86.86 0 00-1.078-.112 17.582 17.582 0 01-6.003 2.488.86.86 0 00-.682.841v1.413a.662.662 0 01-.662.662h-4.663a.662.662 0 01-.662-.661v-1.414a.86.86 0 00-.682-.84 17.585 17.585 0 01-6.004-2.489.858.858 0 00-1.077.112l-1 1a.662.662 0 01-.936 0L6.01 34.694a.662.662 0 010-.936l1-1a.86.86 0 00.112-1.078 17.582 17.582 0 01-2.488-6.003.86.86 0 00-.841-.682H2.38a.663.663 0 01-.661-.662V19.67c0-.365.297-.662.661-.662h1.414a.86.86 0 00.84-.682 17.582 17.582 0 012.489-6.004.86.86 0 00-.112-1.077l-1-1a.663.663 0 010-.936L9.307 6.01a.662.662 0 01.935 0l1 1a.86.86 0 001.078.112c1.84-1.2 3.86-2.037 6.003-2.488a.86.86 0 00.682-.841V2.38c0-.364.297-.661.662-.661h4.663c.365 0 .662.297.662.661v1.414a.86.86 0 00.682.84 17.583 17.583 0 016.004 2.489.86.86 0 001.077-.112l1-1a.662.662 0 01.936 0l3.297 3.297a.662.662 0 010 .935l-1 1a.86.86 0 00-.112 1.078 17.58 17.58 0 012.488 6.003.86.86 0 00.841.682h1.413c.365 0 .662.297.662.662v4.664z" fill="#020288"/><path d="M27.636 19.35l-3.328.124.516-6.96a.86.86 0 00-1.566-.548l-7.635 11.16a.86.86 0 00.709 1.345h4.205l-.942 6.962a.86.86 0 001.576.577l7.221-11.339a.86.86 0 00-.756-1.32zm-5.814 8.438l.55-4.061a.859.859 0 00-.852-.975h-3.559l4.913-7.181-.35 4.734a.86.86 0 00.888.922l2.651-.098-4.24 6.659z" fill="#020288"/></svg>
